wp-content/themes/canvas/img/carriere.svg

<svg clip-rule="evenodd" fill-rule="evenodd" stroke-linejoin="round" stroke-miterlimit="1.41421" viewBox="0 0 303 33" xmlns="http://www.w3.org/2000/svg"><g fill="#b91100" fill-rule="nonzero" transform="matrix(1.3652 0 0 1.3652 -67.58901 -97.2029)"><g transform="matrix(1.20365 0 0 1.20365 -.401422 3.21065)"><path d="m62.386 73.294c-.19.12-.524.34-1.001.662s-1.109.644-1.896.966c-.786.321-1.722.608-2.807.858s-2.318.375-3.701.375c-1.693 0-3.243-.238-4.649-.715-1.407-.477-2.623-1.144-3.648-2.003-1.025-.858-1.818-1.895-2.378-3.111-.561-1.216-.841-2.563-.841-4.041 0-1.431.286-2.748.859-3.952.572-1.204 1.359-2.241 2.36-3.111s2.175-1.544 3.522-2.021c1.348-.476 2.796-.715 4.346-.715 1.287 0 2.443.125 3.469.376 1.025.25 1.931.56 2.717.929.787.37 1.461.751 2.021 1.145.56.393 1.031.733 1.413 1.019l-1.681 2.646c-.501-.333-1.019-.673-1.556-1.019-.536-.345-1.114-.661-1.734-.947-.62-.287-1.312-.525-2.075-.716-.762-.19-1.621-.286-2.574-.286-1.216 0-2.319.179-3.308.537-.99.357-1.824.846-2.504 1.466-.679.62-1.204 1.347-1.573 2.181-.37.835-.555 1.729-.555 2.683 0 .81.167 1.609.501 2.396.334.786.846 1.484 1.538 2.092.691.608 1.561 1.096 2.61 1.466s2.277.554 3.684.554c1.073 0 2.05-.107 2.933-.322.882-.214 1.662-.464 2.342-.751.679-.286 1.252-.572 1.717-.858.464-.286.816-.512 1.055-.679z"/><path d="m88.421 75.583h-3.719l-2.36-4.327h-11.301l-2.289 4.327h-3.576l10.013-18.525h3.147zm-11.694-14.984-4.041 7.51h8.082z"/><path d="m146.12261 57.058h3.147v18.525h-3.147z"/><path d="m176.493 75.583h-19.158v-18.525h18.8v3.147h-15.653v4.256h10.548v3.147h-10.548v4.828h16.011z" transform="translate(-2.49242)"/><path d="m225.738 75.583h-19.158v-18.525h18.8v3.147h-15.653v4.256h10.547v3.147h-10.547v4.828h16.011z"/></g><path d="m110.967 75.681v-3.792h16.775c1.119 0 2.188.108 3.207.323 1.018.215 1.922.567 2.711 1.054.79.488 1.414 1.141 1.873 1.959s.689 1.844.689 3.078-.187 2.26-.56 3.077c-.373.818-.854 1.471-1.442 1.959s-1.234.854-1.937 1.098-1.385.423-2.045.538l6.5 9.211h-4.735l-6.414-9.125h-10.834v9.125h-3.788v-12.92h3.788v.007h13.374c1.263 0 2.296-.208 3.099-.624.804-.416 1.206-1.17 1.206-2.26 0-.632-.101-1.127-.302-1.485-.2-.359-.495-.632-.882-.818-.387-.187-.861-.301-1.421-.344-.559-.044-1.198-.065-1.915-.065h-13.159v.004z"/><path d="m143.4 75.681v-3.792h16.775c1.119 0 2.188.108 3.207.323 1.018.215 1.922.567 2.712 1.054.789.488 1.413 1.141 1.872 1.959s.689 1.844.689 3.078-.187 2.26-.56 3.077c-.373.818-.854 1.471-1.442 1.959s-1.234.854-1.937 1.098-1.384.423-2.045.538l6.5 9.211h-4.735l-6.413-9.125h-10.835v9.125h-3.788v-12.92h3.788v.007h13.374c1.263 0 2.296-.208 3.1-.624.803-.416 1.205-1.17 1.205-2.26 0-.632-.101-1.127-.302-1.485-.2-.359-.495-.632-.882-.818-.387-.187-.861-.301-1.42-.344-.56-.044-1.199-.065-1.916-.065h-13.159v.004z"/><path d="m215.773 75.681v-3.792h16.774c1.12 0 2.189.108 3.207.323 1.019.215 1.923.567 2.712 1.054.789.488 1.413 1.141 1.873 1.959.459.818.688 1.844.688 3.078s-.186 2.26-.559 3.077c-.373.818-.854 1.471-1.442 1.959-.589.488-1.234.854-1.937 1.098s-1.385.423-2.045.538l6.5 9.211h-4.735l-6.414-9.125h-10.834v9.125h-3.788v-12.92h3.788v.007h13.374c1.262 0 2.296-.208 3.099-.624.804-.416 1.205-1.17 1.205-2.26 0-.632-.1-1.127-.301-1.485-.201-.359-.495-.632-.882-.818-.388-.187-.861-.301-1.421-.344-.56-.044-1.198-.065-1.915-.065h-13.159v.004z"/></g></svg>

<?xml version="1.0" encoding="UTF-8" standalone="no"?>
<!DOCTYPE svg PUBLIC "-//W3C//DTD SVG 1.1//EN" "http://www.w3.org/Graphics/SVG/1.1/DTD/svg11.dtd">
<svg width="100%" height="100%" viewBox="0 0 303 33" version="1.1" xmlns="http://www.w3.org/2000/svg" xmlns:xlink="http://www.w3.org/1999/xlink" xml:space="preserve" xmlns:serif="http://www.serif.com/" style="fill-rule:evenodd;clip-rule:evenodd;stroke-linejoin:round;stroke-miterlimit:1.41421;">
    <g transform="matrix(1,0,0,1,-5.20251,-85.1824)">
        <g transform="matrix(1.3652,0,0,1.3652,-62.3865,-12.0205)">
            <g transform="matrix(1.20365,0,0,1.20365,-0.401422,3.21065)">
                <path d="M62.386,73.294C62.196,73.414 61.862,73.634 61.385,73.956C60.908,74.278 60.276,74.6 59.489,74.922C58.703,75.243 57.767,75.53 56.682,75.78C55.597,76.03 54.364,76.155 52.981,76.155C51.288,76.155 49.738,75.917 48.332,75.44C46.925,74.963 45.709,74.296 44.684,73.437C43.659,72.579 42.866,71.542 42.306,70.326C41.745,69.11 41.465,67.763 41.465,66.285C41.465,64.854 41.751,63.537 42.324,62.333C42.896,61.129 43.683,60.092 44.684,59.222C45.685,58.352 46.859,57.678 48.206,57.201C49.554,56.725 51.002,56.486 52.552,56.486C53.839,56.486 54.995,56.611 56.021,56.862C57.046,57.112 57.952,57.422 58.738,57.791C59.525,58.161 60.199,58.542 60.759,58.936C61.319,59.329 61.79,59.669 62.172,59.955L60.491,62.601C59.99,62.268 59.472,61.928 58.935,61.582C58.399,61.237 57.821,60.921 57.201,60.635C56.581,60.348 55.889,60.11 55.126,59.919C54.364,59.729 53.505,59.633 52.552,59.633C51.336,59.633 50.233,59.812 49.244,60.17C48.254,60.527 47.42,61.016 46.74,61.636C46.061,62.256 45.536,62.983 45.167,63.817C44.797,64.652 44.612,65.546 44.612,66.5C44.612,67.31 44.779,68.109 45.113,68.896C45.447,69.682 45.959,70.38 46.651,70.988C47.342,71.596 48.212,72.084 49.261,72.454C50.31,72.824 51.538,73.008 52.945,73.008C54.018,73.008 54.995,72.901 55.878,72.686C56.76,72.472 57.54,72.222 58.22,71.935C58.899,71.649 59.472,71.363 59.937,71.077C60.401,70.791 60.753,70.565 60.992,70.398L62.386,73.294Z" style="fill:rgb(185,17,0);fill-rule:nonzero;"/>
                <path d="M88.421,75.583L84.702,75.583L82.342,71.256L71.041,71.256L68.752,75.583L65.176,75.583L75.189,57.058L78.336,57.058L88.421,75.583ZM76.727,60.599L72.686,68.109L80.768,68.109L76.727,60.599Z" style="fill:rgb(185,17,0);fill-rule:nonzero;"/>
                <g transform="matrix(1,0,0,1,1.66161,0)">
                    <rect x="144.461" y="57.058" width="3.147" height="18.525" style="fill:rgb(185,17,0);fill-rule:nonzero;"/>
                </g>
                <g transform="matrix(1,0,0,1,-2.49242,0)">
                    <path d="M176.493,75.583L157.335,75.583L157.335,57.058L176.135,57.058L176.135,60.205L160.482,60.205L160.482,64.461L171.03,64.461L171.03,67.608L160.482,67.608L160.482,72.436L176.493,72.436L176.493,75.583Z" style="fill:rgb(185,17,0);fill-rule:nonzero;"/>
                </g>
                <path d="M225.738,75.583L206.58,75.583L206.58,57.058L225.38,57.058L225.38,60.205L209.727,60.205L209.727,64.461L220.274,64.461L220.274,67.608L209.727,67.608L209.727,72.436L225.738,72.436L225.738,75.583Z" style="fill:rgb(185,17,0);fill-rule:nonzero;"/>
            </g>
            <path d="M110.967,75.681L110.967,71.889L127.742,71.889C128.861,71.889 129.93,71.997 130.949,72.212C131.967,72.427 132.871,72.779 133.66,73.266C134.45,73.754 135.074,74.407 135.533,75.225C135.992,76.043 136.222,77.069 136.222,78.303C136.222,79.537 136.035,80.563 135.662,81.38C135.289,82.198 134.808,82.851 134.22,83.339C133.632,83.827 132.986,84.193 132.283,84.437C131.58,84.681 130.898,84.86 130.238,84.975L136.738,94.186L132.003,94.186L125.589,85.061L114.755,85.061L114.755,94.186L110.967,94.186L110.967,81.266L114.755,81.266L114.755,81.273L128.129,81.273C129.392,81.273 130.425,81.065 131.228,80.649C132.032,80.233 132.434,79.479 132.434,78.389C132.434,77.757 132.333,77.262 132.132,76.904C131.932,76.545 131.637,76.272 131.25,76.086C130.863,75.899 130.389,75.785 129.829,75.742C129.27,75.698 128.631,75.677 127.914,75.677L114.755,75.677L114.755,75.681L110.967,75.681Z" style="fill:rgb(185,17,0);fill-rule:nonzero;"/>
            <path d="M143.4,75.681L143.4,71.889L160.175,71.889C161.294,71.889 162.363,71.997 163.382,72.212C164.4,72.427 165.304,72.779 166.094,73.266C166.883,73.754 167.507,74.407 167.966,75.225C168.425,76.043 168.655,77.069 168.655,78.303C168.655,79.537 168.468,80.563 168.095,81.38C167.722,82.198 167.241,82.851 166.653,83.339C166.065,83.827 165.419,84.193 164.716,84.437C164.013,84.681 163.332,84.86 162.671,84.975L169.171,94.186L164.436,94.186L158.023,85.061L147.188,85.061L147.188,94.186L143.4,94.186L143.4,81.266L147.188,81.266L147.188,81.273L160.562,81.273C161.825,81.273 162.858,81.065 163.662,80.649C164.465,80.233 164.867,79.479 164.867,78.389C164.867,77.757 164.766,77.262 164.565,76.904C164.365,76.545 164.07,76.272 163.683,76.086C163.296,75.899 162.822,75.785 162.263,75.742C161.703,75.698 161.064,75.677 160.347,75.677L147.188,75.677L147.188,75.681L143.4,75.681Z" style="fill:rgb(185,17,0);fill-rule:nonzero;"/>
            <path d="M215.773,75.681L215.773,71.889L232.547,71.889C233.667,71.889 234.736,71.997 235.754,72.212C236.773,72.427 237.677,72.779 238.466,73.266C239.255,73.754 239.879,74.407 240.339,75.225C240.798,76.043 241.027,77.069 241.027,78.303C241.027,79.537 240.841,80.563 240.468,81.38C240.095,82.198 239.614,82.851 239.026,83.339C238.437,83.827 237.792,84.193 237.089,84.437C236.386,84.681 235.704,84.86 235.044,84.975L241.544,94.186L236.809,94.186L230.395,85.061L219.561,85.061L219.561,94.186L215.773,94.186L215.773,81.266L219.561,81.266L219.561,81.273L232.935,81.273C234.197,81.273 235.231,81.065 236.034,80.649C236.838,80.233 237.239,79.479 237.239,78.389C237.239,77.757 237.139,77.262 236.938,76.904C236.737,76.545 236.443,76.272 236.056,76.086C235.668,75.899 235.195,75.785 234.635,75.742C234.075,75.698 233.437,75.677 232.72,75.677L219.561,75.677L219.561,75.681L215.773,75.681Z" style="fill:rgb(185,17,0);fill-rule:nonzero;"/>
        </g>
    </g>
</svg>
